!!!SOCIAL_FUNCTION: tick dance songs
!!!PDT:	1943
!!!LING_GROUP: Muskogean
!!!LANG: Non-Tone
Specific Region: Oklahoma, California, Mississippi, Louisiana, Texas, Alabama
!!!REG: Southeast
!!!COM: Anon.
!!!OTL: Tick Dance Song (a)
!!!ODT: <1933//
!!!MPN: Sidney Wesley
!!!MLC: Philadelphia, Mississippi, United States of America
!! Song was recorded in January 1933.
!!!AGN: monody
!!!SOCIAL_FUNCTION: tick dance
!!!AMT: irregular
!!!RWG: Transcribed pitches, durations, and meters are only approximate.
**kern
*ICvox
*Imale
*clefF4
*k[b-e-]
*M2/4
*MM104
=1-
8G
8G
4G
=2
4G
4G
=3
8B-
8G
8G
8r
*M3/4
=4
8G
8G
8G
8G
8G
8r
=5
4d
4c
8B-
8G
=6
8B-
8G
8G
8r
4G
*M2/4
=7
8B-
8G
4G
*M3/4
=8
8B-
8G
4c
8B-
8G
*M2/4
=9
8B-
8G
8G
8r
*M3/4
=10
8G
8G
8G
8G
8G
8r
=11
8G
8G
8G
8G
4G
*M2/4
=12
8B-
8G
8G
8r
*M3/4
=13
8G
8G
8G
8G
8G
8r
=14
4d
4c
8B-
8G
=15
8B-
8G
8G
8r
4G
*M2/4
=16
8B-
8G
4G
*M3/4
=17
8B-
8G
4c
8B-
8G
*M2/4
=18
8B-
8G
8G
8r
*M3/4
=19
8G
8G
8G
8G
8G
8r
=20
8G
8G
8G
8G
4G
*M2/4
=21
8B-
8G
8G
8r
*M3/4
=22
8G
8G
8G
8G
8G
8r
=23
4d
4c
8c
8G
=24
8B-
8G
8G
8r
4G
*M2/4
=25
8B-
8G
8G
8r
*M3/4
=26
4B-
4c
8B-
8G
*M2/4
=27
4B-
8G
8r
*M3/4
=28
8G
8G
8G
8G
8G
8r
=29
8G
8G
8G
8G
4G
*M2/4
=30
!! accelerando
8B-
8G
8G
8r
*M3/4
=31
8G
8G
8G
8G
8G
8r
=32
4d
4c
8c
8G
=33
8B-
8G
8G
8r
4G
*M2/4
=34
8B-
8G
8G
8r
*M3/4
=35
4B-
4c
8B-
8G
*M2/4
=36
4B-
8G
8r
*M3/4
=37
8G
8G
8G
8G
8G
8r
=38
8G
8G
8G
8G
4G
*M2/4
=39
!! accelerando
8B-
8G
8G
8r
*M3/4
=40
8G
8G
8G
8G
8G
8r
=41
4G
4c
8B-
8G
*M2/4
=42
8B-
8G
8G
8r
*M3/4
*MM126
=43
8G
8G
8G
8G
8G
8r
==
*-
!!!CNT: Choctaw
!!!TXO: Choctaw
!!!OCY: United States
!!!OCL: Frances Densmore
!!!YOR: Frances Densmore, "Choctaw Music"
!!!YOR: Bulletin 136, page 136, No. 10
!!!PPR: Smithsonian Institution, Bureau of American Ethnology
!!!PPR: Government Printing Office
!!!PDT: 1943
!!!PPP: Washington, DC, United States of America
!!!YEC: Electronic Copyright 2000 David Huron
!!!YER: August 2000
!!!YEN: United States of America
!!!ENC: David Huron
!!!RDT: August 27, 2000
!!!EEV: Release 1.0
!!!AIN: vox
